X: 7754
T: Columba
R: waltz
M: 3/4
K: Bminor
|:"Bm"f6|"G"B6|"D"f4a2|"A"c4cd|"C"e4f2|"F"A4B2|1 "G"G4A2|"A"B(ee4):|2 "G"G4A2|"A"B(cc4)||
|:"Bm"d4dc|"G"d4dc|"Em"d2e3c|"A"B2A4|"Bm"d4dc|"G"d4dc|"Em"d2e2"F#m"c2|"Bm"B6:|

